src/icons/icons_set_04/047-fleche-haut.svg

<svg height="50" viewBox="0 0 50 50" width="50" xmlns="http://www.w3.org/2000/svg"><g transform="matrix(-1 0 0 -1 44 50)"><path d="m14 5c0-2.48528137 2.0147186-4.5 4.5-4.5s4.5 2.01471863 4.5 4.5v38.5c0 2.4852814-2.0147186 4.5-4.5 4.5s-4.5-2.0147186-4.5-4.5z"/><path d="m28.6370336 26.0099403c1.6513644-1.8573151 4.495711-2.0242711 6.3530261-.3729067s2.0242711 4.495711.3729067 6.3530261l-13.3367064 15c-1.7756246 1.9970725-4.8902035 2.0158057-6.6897223.0402365l-13.66329362-15c-1.67358638-1.8373166-1.54085684-4.6834657.29645972-6.3570521s4.68346574-1.5408569 6.35705212.2964597l10.29607738 11.3033625z"/></g></svg>

<?xml version="1.0" encoding="UTF-8"?>
<svg width="50px" height="50px" viewBox="0 0 50 50" version="1.1" xmlns="http://www.w3.org/2000/svg" xmlns:xlink="http://www.w3.org/1999/xlink">
    <!-- Generator: Sketch 52.4 (67378) - http://www.bohemiancoding.com/sketch -->
    <title>047-fleche-haut</title>
    <desc>Created with Sketch.</desc>
    <g id="047-fleche-haut" stroke="none" stroke-width="1" fill="none" fill-rule="evenodd">
        <g id="Group-2" transform="translate(25.500000, 25.500000) rotate(-180.000000) translate(-25.500000, -25.500000) translate(7.000000, 1.000000)" fill="#000000" fill-rule="nonzero">
            <path d="M14,5 C14,2.51471863 16.0147186,0.5 18.5,0.5 C20.9852814,0.5 23,2.51471863 23,5 L23,43.5 C23,45.9852814 20.9852814,48 18.5,48 C16.0147186,48 14,45.9852814 14,43.5 L14,5 Z" id="Path-3"></path>
            <path d="M28.6370336,26.0099403 C30.288398,24.1526252 33.1327446,23.9856692 34.9900597,25.6370336 C36.8473748,27.288398 37.0143308,30.1327446 35.3629664,31.9900597 L22.02626,46.9900597 C20.2506354,48.9871322 17.1360565,49.0058654 15.3365377,47.0302962 L1.67324408,32.0302962 C-0.000342297264,30.1929796 0.13238724,27.3468305 1.9697038,25.6732441 C3.80702036,23.9996577 6.65316954,24.1323872 8.32675592,25.9697038 L18.6228333,37.2730663 L28.6370336,26.0099403 Z" id="Path-4"></path>
        </g>
    </g>
</svg>
